src/images/icons/dollar-mist.svg

<svg width="80.005" height="80" fill="none" xmlns="http://www.w3.org/2000/svg"><defs><clipPath id="a"><path transform="translate(20 20)" fill="#fff" fill-opacity="0" d="M0 0h40v40H0z"/></clipPath></defs><path fill="none" d="M0 0h80v80H0z"/><path d="M77.96 27.42A39.888 39.888 0 0 0 61 5.95C53.27 1.19 43.88-1 34.2.43c-8.99 1.31-17.58 5.66-24.08 12.98C4.08 20.19.3 29.05.02 38.83c-.27 9.08 2.53 18.3 8.6 25.96 5.63 7.13 13.7 12.4 23.28 14.37 8.9 1.84 18.46.69 27.07-3.96 8-4.31 14.58-11.34 18.19-20.44a39.79 39.79 0 0 0 .8-27.34Zm-42.18-16.2c6.54-.97 13.44.28 19.49 4.02 5.62 3.47 10.11 8.85 12.34 15.61a28.91 28.91 0 0 1-.59 19.89A28.89 28.89 0 0 1 53.79 65.6a28.874 28.874 0 0 1-19.68 2.88 28.875 28.875 0 0 1-16.93-10.45 28.95 28.95 0 0 1-6.26-18.89c.19-6.6 2.61-13.17 7.35-18.48 4.39-4.94 10.47-8.42 17.51-9.44Z" fill="#FFF" fill-rule="evenodd" opacity=".3"/><circle cx="40" cy="40" r="29" fill="#FFF"/><g clip-path="url(#a)" stroke="#000" stroke-linejoin="round"><path d="M40 57.27c-9.54 0-17.28-7.74-17.28-17.27 0-9.54 7.74-17.28 17.28-17.28 9.54 0 17.27 7.74 17.27 17.28 0 9.53-7.73 17.27-17.27 17.27Z" stroke-width="2"/><path d="M45.09 34.54c-.33-.57-.81-1.04-1.39-1.36-.57-.32-1.23-.48-1.89-.46h-3.63c-.97 0-1.89.39-2.57 1.07-.69.68-1.07 1.61-1.07 2.57 0 .96.38 1.89 1.07 2.57.68.68 1.6 1.07 2.57 1.07h3.63c.97 0 1.89.38 2.57 1.06.69.68 1.07 1.61 1.07 2.57 0 .96-.38 1.89-1.07 2.57-.68.68-1.6 1.07-2.57 1.07h-3.63a3.676 3.676 0 0 1-3.28-1.82" stroke-width="2.75" stroke-linecap="round"/><path d="M40 28.18" stroke-width="2.75"/></g></svg>

<svg width="80.004883" height="80.000000" viewBox="0 0 80.0049 80" fill="none" xmlns="http://www.w3.org/2000/svg" xmlns:xlink="http://www.w3.org/1999/xlink">
	<desc>
			Created with Pixso.
	</desc>
	<defs>
		<clipPath id="clip95_1646">
			<rect id="Icon-Sale" width="40.000000" height="40.000000" transform="translate(20.000000 20.000000)" fill="white" fill-opacity="0"/>
		</clipPath>
	</defs>
	<rect id="Services" width="80.000000" height="80.000000" fill="#FFFFFF" fill-opacity="0"/>
	<g opacity="0.300000">
		<path id="Ellipse 6" d="M77.96 27.42C75.11 18.8 69.32 11.09 61 5.95C53.27 1.19 43.88 -1 34.2 0.43C25.21 1.74 16.62 6.09 10.12 13.41C4.08 20.19 0.3 29.05 0.02 38.83C-0.25 47.91 2.55 57.13 8.62 64.79C14.25 71.92 22.32 77.19 31.9 79.16C40.8 81 50.36 79.85 58.97 75.2C66.97 70.89 73.55 63.86 77.16 54.76C80.52 46.33 81.04 36.7 77.96 27.42ZM35.78 11.22C42.32 10.25 49.22 11.5 55.27 15.24C60.89 18.71 65.38 24.09 67.61 30.85C69.69 37.12 69.66 44.13 67.02 50.74C64.59 56.88 60.06 62.23 53.79 65.6C47.98 68.74 41.08 69.93 34.11 68.48C27.64 67.15 21.58 63.62 17.18 58.03C13.08 52.85 10.71 46.26 10.92 39.14C11.11 32.54 13.53 25.97 18.27 20.66C22.66 15.72 28.74 12.24 35.78 11.22Z" fill="#FFFFFF" fill-opacity="1.000000" fill-rule="evenodd"/>
	</g>
	<circle id="Ellipse 5" cx="40.000000" cy="40.000000" r="29.000000" fill="#FFFFFF" fill-opacity="1.000000"/>
	<g clip-path="url(#clip95_1646)">
		<path id="Vector" d="M40 57.27C30.46 57.27 22.72 49.53 22.72 40C22.72 30.46 30.46 22.72 40 22.72C49.54 22.72 57.27 30.46 57.27 40C57.27 49.53 49.54 57.27 40 57.27Z" stroke="#000000" stroke-opacity="1.000000" stroke-width="2.000000" stroke-linejoin="round"/>
		<path id="Vector" d="M45.09 34.54C44.76 33.97 44.28 33.5 43.7 33.18C43.13 32.86 42.47 32.7 41.81 32.72L38.18 32.72C37.21 32.72 36.29 33.11 35.61 33.79C34.92 34.47 34.54 35.4 34.54 36.36C34.54 37.32 34.92 38.25 35.61 38.93C36.29 39.61 37.21 40 38.18 40L41.81 40C42.78 40 43.7 40.38 44.38 41.06C45.07 41.74 45.45 42.67 45.45 43.63C45.45 44.59 45.07 45.52 44.38 46.2C43.7 46.88 42.78 47.27 41.81 47.27L38.18 47.27C37.52 47.29 36.87 47.13 36.29 46.81C35.71 46.49 35.23 46.02 34.9 45.45" stroke="#000000" stroke-opacity="1.000000" stroke-width="2.750000" stroke-linejoin="round" stroke-linecap="round"/>
		<path id="Vector" d="M40 28.18L40 28.18M40 28.18L40 28.18" stroke="#000000" stroke-opacity="1.000000" stroke-width="2.750000" stroke-linejoin="round"/>
	</g>
</svg>
